X:2505
T:Miss Brown's Reel
P:The Cadger's Ford
C:F. Gilruth
R:Reel (8x32)
B:RSCDS 25-5
Z:Anselm Lingnau <anselm@strathspey.org>
M:C
L:1/8
K:G
D|"G"B,D D/E/F G2 GB|"C"cBAG "A"EA"D"FD|\
                               "G"B,D D/E/F "C"G2 Gg|"G"dB"D7"cA "G"G2 GD|
  "G"B,D D/E/F G2 GB|"C"cBAG "A"EA"D"FD|\
                               "G"B,D D/E/F "C"G2 Gg|"G"dB"D7"cA "G"G2 G||
c|"G"BGBd "Em"gfed|"A7"cBAG EA"D"FD|"G"BGBd "Em"gfed|"A"ed"D7"fg "G"G2 Gd|
  "G"BdBG "Am"cecA|"A7"BEAG "D"FAFD|"C"ECEG "G/B"DB,DG|"D7"F/G/A D/E/F "G"G2G|]
